packages/components/src/components/icon/rebranding/ic-rebranding-mt5-logo.svg

<svg width="32" height="32" viewBox="0 0 32 32" fill="none" xmlns="http://www.w3.org/2000/svg"><g clip-path="url(#clip0_34862_172797)"><path d="M5.99992 0C2.68625 0 0 2.68625 0 5.99992V6.17424L29.9141 1.45266C28.8633 0.547339 27.4954 0 25.9996 0H5.99992Z" fill="#0A559E"/><path d="M30.5315 2.06772L25.044 31.9996H25.9996C29.3133 31.9996 31.9996 29.3133 31.9996 25.9996V5.99992C31.9996 4.4957 31.446 3.12078 30.5315 2.06772Z" fill="#0A559E"/><path fill-rule="evenodd" clip-rule="evenodd" d="M25.044 31.9996L5.99992 32C2.68625 32 0 29.3137 0 26.0001V6.17424L29.9141 1.45266C30.1344 1.64252 30.3408 1.84812 30.5315 2.06772L25.044 31.9996Z" fill="#0364B9"/><path d="M7.342 11.752C7.486 12.016 7.65 12.344 7.834 12.736C8.026 13.12 8.222 13.54 8.422 13.996C8.63 14.444 8.834 14.904 9.034 15.376C9.234 15.848 9.422 16.292 9.598 16.708C9.774 16.292 9.962 15.848 10.162 15.376C10.362 14.904 10.562 14.444 10.762 13.996C10.97 13.54 11.166 13.12 11.35 12.736C11.542 12.344 11.71 12.016 11.854 11.752H13.558C13.638 12.304 13.71 12.924 13.774 13.612C13.846 14.292 13.906 15.004 13.954 15.748C14.01 16.484 14.058 17.224 14.098 17.968C14.146 18.712 14.186 19.412 14.218 20.068H12.394C12.37 19.26 12.338 18.38 12.298 17.428C12.258 16.476 12.198 15.516 12.118 14.548C11.974 14.884 11.814 15.256 11.638 15.664C11.462 16.072 11.286 16.48 11.11 16.888C10.942 17.296 10.778 17.688 10.618 18.064C10.458 18.432 10.322 18.748 10.21 19.012H8.902C8.79 18.748 8.654 18.432 8.494 18.064C8.334 17.688 8.166 17.296 7.99 16.888C7.822 16.48 7.65 16.072 7.474 15.664C7.298 15.256 7.138 14.884 6.994 14.548C6.914 15.516 6.854 16.476 6.814 17.428C6.774 18.38 6.742 19.26 6.718 20.068H4.894C4.926 19.412 4.962 18.712 5.002 17.968C5.05 17.224 5.098 16.484 5.146 15.748C5.202 15.004 5.262 14.292 5.326 13.612C5.398 12.924 5.474 12.304 5.554 11.752H7.342Z" fill="white"/><path d="M21.3543 11.752V13.348H18.8463V20.068H16.9743V13.348H14.4663V11.752H21.3543Z" fill="white"/><path d="M25.3174 17.62C25.3174 17.388 25.2654 17.184 25.1614 17.008C25.0574 16.824 24.8774 16.672 24.6214 16.552C24.3654 16.432 24.0214 16.34 23.5894 16.276C23.1574 16.212 22.6134 16.18 21.9574 16.18C22.0454 15.436 22.1174 14.68 22.1734 13.912C22.2294 13.144 22.2734 12.424 22.3054 11.752H26.8054V13.252H23.8054C23.7894 13.54 23.7694 13.82 23.7454 14.092C23.7294 14.356 23.7094 14.588 23.6854 14.788C24.8534 14.868 25.7134 15.144 26.2654 15.616C26.8254 16.08 27.1054 16.728 27.1054 17.56C27.1054 17.944 27.0374 18.3 26.9014 18.628C26.7654 18.956 26.5614 19.24 26.2894 19.48C26.0174 19.72 25.6734 19.908 25.2574 20.044C24.8494 20.18 24.3694 20.248 23.8174 20.248C23.6014 20.248 23.3734 20.232 23.1334 20.2C22.9014 20.176 22.6734 20.14 22.4494 20.092C22.2334 20.052 22.0374 20.008 21.8614 19.96C21.6854 19.912 21.5494 19.864 21.4534 19.816L21.7774 18.34C21.9774 18.428 22.2414 18.516 22.5694 18.604C22.8974 18.684 23.2894 18.724 23.7454 18.724C24.2974 18.724 24.6974 18.616 24.9454 18.4C25.1934 18.176 25.3174 17.916 25.3174 17.62Z" fill="white"/></g><defs><clipPath id="clip0_34862_172797"><rect width="32" height="32" fill="white"/></clipPath></defs></svg>

<svg viewBox="0 0 32 32" fill="none" xmlns="http://www.w3.org/2000/svg"><path d="M6 0a6 6 0 00-6 6v.174l29.914-4.721A5.977 5.977 0 0026 0H6zM30.532 2.068L25.044 32H26a6 6 0 006-6V6c0-1.504-.554-2.88-1.468-3.932z" fill="#0A559E"/><path fill-rule="evenodd" clip-rule="evenodd" d="M25.044 32H6a6 6 0 01-6-6V6.174l29.914-4.721c.22.19.427.395.617.615L25.044 32z" fill="#0364B9"/><path d="M7.342 11.752c.144.264.308.592.492.984.192.384.388.804.588 1.26.208.448.412.908.612 1.38l.564 1.332.564-1.332c.2-.472.4-.932.6-1.38.208-.456.404-.876.588-1.26.192-.392.36-.72.504-.984h1.704c.08.552.152 1.172.216 1.86.072.68.132 1.392.18 2.136.056.736.104 1.476.144 2.22.048.744.088 1.444.12 2.1h-1.824c-.024-.808-.056-1.688-.096-2.64-.04-.952-.1-1.912-.18-2.88a517.564 517.564 0 01-1.008 2.34 108.944 108.944 0 01-.9 2.124H8.902c-.112-.264-.248-.58-.408-.948-.16-.376-.328-.768-.504-1.176-.168-.408-.34-.816-.516-1.224l-.48-1.116c-.08.968-.14 1.928-.18 2.88-.04.952-.072 1.832-.096 2.64H4.894c.032-.656.068-1.356.108-2.1l.144-2.22c.056-.744.116-1.456.18-2.136.072-.688.148-1.308.228-1.86h1.788zM21.354 11.752v1.596h-2.508v6.72h-1.872v-6.72h-2.508v-1.596h6.888zM25.317 17.62a1.18 1.18 0 00-.156-.612c-.104-.184-.284-.336-.54-.456-.256-.12-.6-.212-1.032-.276a11.46 11.46 0 00-1.632-.096c.088-.744.16-1.5.216-2.268.056-.768.1-1.488.132-2.16h4.5v1.5h-3c-.016.288-.036.568-.06.84-.016.264-.036.496-.06.696 1.168.08 2.028.356 2.58.828.56.464.84 1.112.84 1.944 0 .384-.068.74-.204 1.068-.136.328-.34.612-.612.852a2.9 2.9 0 01-1.032.564c-.408.136-.888.204-1.44.204-.216 0-.444-.016-.684-.048a6.41 6.41 0 01-.684-.108 7.294 7.294 0 01-.588-.132 2.309 2.309 0 01-.408-.144l.324-1.476c.2.088.464.176.792.264.328.08.72.12 1.176.12.552 0 .952-.108 1.2-.324.248-.224.372-.484.372-.78z" fill="#fff"/></svg>
